X:90
T: WAS WOELLN WIR AUF DEN ABEND THUN
N: E1120
O: Europa, Mitteleuropa, Deutschland
R: Trink -, Zech - Lied
M: 4/4
L: 1/8
K: G
G2 | G2G2A2A2 | B2AGA4 |
B2G2F2GA | G6z2 |
c2c2A2A2 | B2AGA2
A2 | c2c2A2A2 | B2AGA4 |
B2G2F2GA | G6

@@@ Tune index: 4774
